packages/foundations/assets/icons/functional/images/maps/station.svg

<svg xmlns="http://www.w3.org/2000/svg" width="32" height="32" fill="none"><path fill="#1A1C1F" fill-rule="evenodd" d="M13.787 2.192c-1.409.222-2.552.589-3.894 1.248-1.487.732-2.524 1.463-3.699 2.61-1.727 1.686-2.898 3.625-3.605 5.97a15 15 0 0 0-.506 2.445c-.096.884-.071 2.633.05 3.455.377 2.563 1.387 4.888 2.984 6.868.466.579 1.489 1.609 2.051 2.066a14.3 14.3 0 0 0 6.752 2.989c.857.132 2.741.162 3.642.057 3.124-.363 5.919-1.683 8.138-3.844.836-.815 1.383-1.468 1.987-2.373 1.193-1.785 1.999-4.05 2.236-6.283.082-.769.036-2.726-.081-3.453-.51-3.171-1.849-5.774-4.088-7.95a13.5 13.5 0 0 0-3.571-2.527c-1.349-.669-2.828-1.131-4.199-1.311-.911-.119-3.353-.101-4.197.033m2.71 1.861c.581.028 1.277.089 1.546.135 2.745.467 5.348 1.976 7.174 4.159 1.171 1.399 2.082 3.269 2.489 5.11.219.992.254 1.443.226 2.863-.025 1.293-.044 1.464-.279 2.48-.27 1.17-.961 2.754-1.663 3.813-1.23 1.857-3.03 3.399-4.999 4.282-2.831 1.271-5.78 1.444-8.666.51a11.7 11.7 0 0 1-4.664-2.816c-1.082-1.054-1.789-2.038-2.459-3.426-.846-1.75-1.148-3.108-1.148-5.163 0-2.075.306-3.436 1.169-5.2.679-1.387 1.405-2.394 2.463-3.417.978-.945 1.878-1.567 3.151-2.18 1.251-.602 2.415-.943 3.723-1.092.74-.084.824-.094.853-.102.015-.004.502.016 1.084.044M10.96 8.545c-.408.146-.827.538-.942.883-.051.153-.071 1.616-.085 6.316-.018 6.08-.017 6.119.092 6.332.155.304.404.572.687.737.212.125.301.143.701.143.402 0 .489-.018.704-.144.275-.161.472-.374.646-.699.115-.217.117-.257.133-2.82l.015-2.6h6.176l.016 2.6.017 2.6.125.254c.21.427.718.774 1.205.824.589.061 1.153-.247 1.472-.804l.157-.274v-6.148c.001-6.148.001-6.149-.111-6.374a1.64 1.64 0 0 0-.715-.721c-.219-.116-.337-.141-.666-.141-.469 0-.83.155-1.112.476-.362.413-.352.334-.37 3.028l-.017 2.44h-6.171l-.018-2.44-.019-2.44-.146-.248c-.386-.657-1.161-.998-1.774-.78"/></svg>

<svg width="32" height="32" viewBox="0 0 32 32" fill="none" xmlns="http://www.w3.org/2000/svg"><path d="M13.787 2.192 C 12.378 2.414,11.235 2.781,9.893 3.440 C 8.406 4.172,7.369 4.903,6.194 6.050 C 4.467 7.736,3.296 9.675,2.589 12.020 C 2.363 12.768,2.161 13.745,2.083 14.465 C 1.987 15.349,2.012 17.098,2.133 17.920 C 2.510 20.483,3.520 22.808,5.117 24.788 C 5.583 25.367,6.606 26.397,7.168 26.854 C 9.076 28.404,11.473 29.466,13.920 29.843 C 14.777 29.975,16.661 30.005,17.562 29.900 C 20.686 29.537,23.481 28.217,25.700 26.056 C 26.536 25.241,27.083 24.588,27.687 23.683 C 28.880 21.898,29.686 19.633,29.923 17.400 C 30.005 16.631,29.959 14.674,29.842 13.947 C 29.332 10.776,27.993 8.173,25.754 5.997 C 24.650 4.924,23.558 4.152,22.183 3.470 C 20.834 2.801,19.355 2.339,17.984 2.159 C 17.073 2.040,14.631 2.058,13.787 2.192 M16.497 4.053 C 17.078 4.081,17.774 4.142,18.043 4.188 C 20.788 4.655,23.391 6.164,25.217 8.347 C 26.388 9.746,27.299 11.616,27.706 13.457 C 27.925 14.449,27.960 14.900,27.932 16.320 C 27.907 17.613,27.888 17.784,27.653 18.800 C 27.383 19.970,26.692 21.554,25.990 22.613 C 24.760 24.470,22.960 26.012,20.991 26.895 C 18.160 28.166,15.211 28.339,12.325 27.405 C 10.535 26.826,9.020 25.911,7.661 24.589 C 6.579 23.535,5.872 22.551,5.202 21.163 C 4.356 19.413,4.054 18.055,4.054 16.000 C 4.054 13.925,4.360 12.564,5.223 10.800 C 5.902 9.413,6.628 8.406,7.686 7.383 C 8.664 6.438,9.564 5.816,10.837 5.203 C 12.088 4.601,13.252 4.260,14.560 4.111 C 15.300 4.027,15.384 4.017,15.413 4.009 C 15.428 4.005,15.915 4.025,16.497 4.053 M10.960 8.545 C 10.552 8.691,10.133 9.083,10.018 9.428 C 9.967 9.581,9.947 11.044,9.933 15.744 C 9.915 21.824,9.916 21.863,10.025 22.076 C 10.180 22.380,10.429 22.648,10.712 22.813 C 10.924 22.938,11.013 22.956,11.413 22.956 C 11.815 22.956,11.902 22.938,12.117 22.812 C 12.392 22.651,12.589 22.438,12.763 22.113 C 12.878 21.896,12.880 21.856,12.896 19.293 L 12.911 16.693 15.999 16.693 L 19.087 16.693 19.103 19.293 L 19.120 21.893 19.245 22.147 C 19.455 22.574,19.963 22.921,20.450 22.971 C 21.039 23.032,21.603 22.724,21.922 22.167 L 22.079 21.893 22.079 15.745 C 22.080 9.597,22.080 9.596,21.968 9.371 C 21.813 9.062,21.570 8.817,21.253 8.650 C 21.034 8.534,20.916 8.509,20.587 8.509 C 20.118 8.509,19.757 8.664,19.475 8.985 C 19.113 9.398,19.123 9.319,19.105 12.013 L 19.088 14.453 16.003 14.453 L 12.917 14.453 12.899 12.013 L 12.880 9.573 12.734 9.325 C 12.348 8.668,11.573 8.327,10.960 8.545 " fill="#1A1C1F" stroke="none" fill-rule="evenodd"></path></svg>
